src/images/global/icons/social/google-plus-fill.svg

<?xml version="1.0" encoding="UTF-8"?>
<svg width="48px" height="48px" viewBox="0 0 48 48" version="1.1" xmlns="http://www.w3.org/2000/svg" xmlns:xlink="http://www.w3.org/1999/xlink">
    <!-- Generator: Sketch 46.2 (44496) - http://www.bohemiancoding.com/sketch -->
    <title>icon/Social/googleplus-fill</title>
    <desc>Created with Sketch.</desc>
    <defs>
        <path d="M16,0 C24.8366154,0 32,7.16338462 32,16 C32,24.8366154 24.8366154,32 16,32 C7.16338462,32 0,24.8366154 0,16 C0,7.16338462 7.16338462,0 16,0 Z M13.3975385,18.1961538 C11.3669231,18.1732308 9.646,19.4795385 9.646,20.9918462 C9.646,22.5372308 11.1110769,23.8192308 13.1426154,23.8192308 C15.7375385,23.8192308 16.9918462,22.6144615 16.9918462,21.0706154 C16.9916923,19.5984615 15.6475385,18.1961538 13.3975385,18.1961538 Z M13.1286154,24.7692308 C10.1896923,24.7692308 7.74123077,23.5023077 7.74123077,21.3726154 C7.74123077,19.7272308 8.78138462,17.5938462 13.648,17.5938462 C12.9258462,17.0058462 12.7469231,16.1849231 13.19,15.2927692 C10.3395385,15.2927692 8.88184615,13.624 8.88184615,11.4986154 C8.88184615,9.41753846 10.4289231,7.53846154 13.5850769,7.53846154 L18.6413846,7.53846154 L17.5116923,8.66815385 L16.1846154,8.66815385 C17.1212308,9.23230769 17.6183077,10.3235385 17.6183077,11.5412308 C17.6183077,12.66 17.0030769,13.5801538 16.126,14.2590769 C14.5664615,15.4649231 14.9664615,16.1367692 16.5973846,17.3278462 C18.2098462,18.534 18.7415385,19.4669231 18.7415385,20.892 C18.7415385,22.6401538 17.1447692,24.7692308 13.1286154,24.7692308 L13.1286154,24.7692308 Z M24.2587692,15.8650769 L22.2843077,15.8650769 L22.2843077,17.8398462 L21.0838462,17.8398462 L21.0838462,15.8650769 L19.1793846,15.8650769 L19.1793846,14.6656923 L21.0838462,14.6656923 L21.0838462,12.7595385 L22.2843077,12.7595385 L22.2843077,14.6656923 L24.2587692,14.6656923 L24.2587692,15.8650769 Z M15.5873846,11.6327692 C15.8235385,13.4233846 15.038,14.5733846 13.6750769,14.5335385 C12.3132308,14.4929231 11.018,13.2423077 10.7833846,11.4530769 C10.5476923,9.66215385 11.4618462,8.29292308 12.8236923,8.334 C14.1869231,8.37523077 15.352,9.84323077 15.5873846,11.6327692 Z" id="path-1"></path>
    </defs>
    <g id="Symbols" stroke="none" stroke-width="1" fill="none" fill-rule="evenodd">
        <g id="icon/Social/googleplus-fill">
            <g id="Icon" transform="translate(8.000000, 8.000000)">
                <mask id="mask-2" fill="white">
                    <use xlink:href="#path-1"></use>
                </mask>
                <use id="Mask" fill="#384048" xlink:href="#path-1"></use>
                <g id="Color/Grayscale/Night-Sky" mask="url(#mask-2)" fill="#111111">
                    <g transform="translate(-8.000000, -8.000000)" id="Swatch">
                        <rect x="0" y="0" width="48" height="48"></rect>
                    </g>
                </g>
            </g>
        </g>
    </g>
</svg>

<?xml version="1.0" encoding="utf-8"?>
<!-- Generator: Adobe Illustrator 21.0.2, SVG Export Plug-In . SVG Version: 6.00 Build 0)  -->
<svg version="1.1" id="icon_x2F_Social_x2F_googleplus-fill-Layer_1" xmlns="http://www.w3.org/2000/svg" xmlns:xlink="http://www.w3.org/1999/xlink" x="0px" y="0px"
	 viewBox="0 0 48 48" style="enable-background:new 0 0 48 48;" xml:space="preserve">
<title>icon/Social/googleplus-fill</title>
<desc>Created with Sketch.</desc>
<g id="icon_x2F_Social_x2F_googleplus-fill-Symbols">
	<g id="icon_x2F_Social_x2F_googleplus-fill">
		<g id="icon_x2F_Social_x2F_googleplus-fill-Icon" transform="translate(8.000000, 8.000000)">
			<g id="icon_x2F_Social_x2F_googleplus-fill-Mask">
				<path id="icon_x2F_Social_x2F_googleplus-fill-path-1_1_" style="fill:#384048;" d="M16,0c8.8,0,16,7.2,16,16s-7.2,16-16,16S0,24.8,0,16S7.2,0,16,0z M13.4,18.2
					c-2,0-3.8,1.3-3.8,2.8c0,1.5,1.5,2.8,3.5,2.8c2.6,0,3.8-1.2,3.8-2.7C17,19.6,15.6,18.2,13.4,18.2z M13.1,24.8
					c-2.9,0-5.4-1.3-5.4-3.4c0-1.6,1-3.8,5.9-3.8c-0.7-0.6-0.9-1.4-0.5-2.3c-2.9,0-4.3-1.7-4.3-3.8c0-2.1,1.5-4,4.7-4h5.1l-1.1,1.1
					h-1.3c0.9,0.6,1.4,1.7,1.4,2.9c0,1.1-0.6,2-1.5,2.7c-1.6,1.2-1.2,1.9,0.5,3.1c1.6,1.2,2.1,2.1,2.1,3.6
					C18.7,22.6,17.1,24.8,13.1,24.8L13.1,24.8z M24.3,15.9h-2v2h-1.2v-2h-1.9v-1.2h1.9v-1.9h1.2v1.9h2V15.9z M15.6,11.6
					c0.2,1.8-0.5,2.9-1.9,2.9c-1.4,0-2.7-1.3-2.9-3.1c-0.2-1.8,0.7-3.2,2-3.1C14.2,8.4,15.4,9.8,15.6,11.6z"/>
			</g>
			<defs>
				<filter id="icon_x2F_Social_x2F_googleplus-fill-Adobe_OpacityMaskFilter" filterUnits="userSpaceOnUse" x="-8" y="-8" width="48" height="48">
					<feColorMatrix  type="matrix" values="1 0 0 0 0  0 1 0 0 0  0 0 1 0 0  0 0 0 1 0"/>
				</filter>
			</defs>
			<mask maskUnits="userSpaceOnUse" x="-8" y="-8" width="48" height="48" id="icon_x2F_Social_x2F_googleplus-fill-mask-2">
				<g style="filter:url(#icon_x2F_Social_x2F_googleplus-fill-Adobe_OpacityMaskFilter);">
					<path id="icon_x2F_Social_x2F_googleplus-fill-path-1" style="fill:#FFFFFF;" d="M16,0c8.8,0,16,7.2,16,16s-7.2,16-16,16S0,24.8,0,16S7.2,0,16,0z M13.4,18.2
						c-2,0-3.8,1.3-3.8,2.8c0,1.5,1.5,2.8,3.5,2.8c2.6,0,3.8-1.2,3.8-2.7C17,19.6,15.6,18.2,13.4,18.2z M13.1,24.8
						c-2.9,0-5.4-1.3-5.4-3.4c0-1.6,1-3.8,5.9-3.8c-0.7-0.6-0.9-1.4-0.5-2.3c-2.9,0-4.3-1.7-4.3-3.8c0-2.1,1.5-4,4.7-4h5.1l-1.1,1.1
						h-1.3c0.9,0.6,1.4,1.7,1.4,2.9c0,1.1-0.6,2-1.5,2.7c-1.6,1.2-1.2,1.9,0.5,3.1c1.6,1.2,2.1,2.1,2.1,3.6
						C18.7,22.6,17.1,24.8,13.1,24.8L13.1,24.8z M24.3,15.9h-2v2h-1.2v-2h-1.9v-1.2h1.9v-1.9h1.2v1.9h2V15.9z M15.6,11.6
						c0.2,1.8-0.5,2.9-1.9,2.9c-1.4,0-2.7-1.3-2.9-3.1c-0.2-1.8,0.7-3.2,2-3.1C14.2,8.4,15.4,9.8,15.6,11.6z"/>
				</g>
			</mask>
			<g id="icon_x2F_Social_x2F_googleplus-fill-Color_x2F_Grayscale_x2F_Night-Sky" style="mask:url(#icon_x2F_Social_x2F_googleplus-fill-mask-2);">
				<g id="icon_x2F_Social_x2F_googleplus-fill-Swatch" transform="translate(-8.000000, -8.000000)">
					<rect style="fill:#111111;" width="48" height="48"/>
				</g>
			</g>
		</g>
	</g>
</g>
</svg>
